boxicons/svg/regular/bx-coffee.svg

<svg xmlns="http://www.w3.org/2000/svg" width="24" height="24" viewBox="0 0 24 24"><path d="M5 2h2v3H5zm4 0h2v3H9zm4 0h2v3h-2zm6 7h-2V7H3v11c0 1.654 1.346 3 3 3h8c1.654 0 3-1.346 3-3h2c1.103 0 2-.897 2-2v-5c0-1.103-.897-2-2-2zm-4 9a1 1 0 0 1-1 1H6a1 1 0 0 1-1-1V9h10v9zm2-2v-5h2l.002 5H17z"/></svg>

<svg xmlns="http://www.w3.org/2000/svg" width="24" height="24" viewBox="0 0 24 24"><path d="M5 2H7V5H5zM9 2H11V5H9zM13 2H15V5H13zM19 9h-2V8 7h-1H4 3v1 5 5c0 1.654 1.346 3 3 3h8c1.654 0 3-1.346 3-3h2c1.103 0 2-.897 2-2v-5C21 9.897 20.103 9 19 9zM15 18c0 .552-.448 1-1 1H6c-.552 0-1-.448-1-1v-5V9h10v1 2 5V18zM17 16v-4-1h2l.002 5H17z"/></svg>
